flaticon/medical/cardiogram.svg

<svg xmlns="http://www.w3.org/2000/svg" width="32" height="32" viewBox="0 0 24 24">
    <path d="M 23.960938 7.496094 C 23.609375 3.640625 20.882812 0.847656 17.46875 0.847656 C 15.402344 0.847656 13.4375 1.878906 12.21875 3.609375 C 12.125 3.746094 12.003906 3.765625 11.9375 3.765625 C 11.867188 3.769531 11.75 3.746094 11.652344 3.605469 C 10.453125 1.851562 8.585938 0.847656 6.527344 0.847656 C 3.117188 0.847656 0.390625 3.640625 0.0390625 7.496094 C 0.0117188 7.664062 -0.101562 8.558594 0.242188 10.023438 C 0.742188 12.132812 1.890625 14.046875 3.566406 15.566406 L 11.929688 23.15625 L 20.433594 15.566406 C 20.863281 15.175781 21.257812 14.761719 21.617188 14.320312 C 21.621094 14.316406 21.625 14.304688 21.632812 14.300781 C 22.664062 13.035156 23.386719 11.582031 23.757812 10.023438 C 24.101562 8.558594 23.988281 7.664062 23.960938 7.496094 Z M 11.933594 21.945312 L 4.171875 14.898438 C 4.011719 14.753906 3.859375 14.601562 3.710938 14.449219 L 5.105469 14.449219 C 5.28125 14.449219 5.441406 14.347656 5.515625 14.1875 L 7.328125 10.199219 L 9.636719 15.96875 C 9.699219 16.128906 9.851562 16.238281 10.023438 16.25 C 10.035156 16.25 10.042969 16.25 10.054688 16.25 C 10.214844 16.25 10.367188 16.164062 10.445312 16.019531 L 12.316406 12.652344 L 13.265625 14.25 C 13.359375 14.40625 13.546875 14.492188 13.726562 14.460938 C 13.910156 14.433594 14.054688 14.292969 14.09375 14.109375 L 15.386719 7.941406 L 16.355469 14.070312 C 16.390625 14.289062 16.578125 14.449219 16.800781 14.449219 L 20.289062 14.449219 C 20.140625 14.601562 19.988281 14.753906 19.828125 14.898438 Z M 22.878906 9.816406 C 22.5625 11.167969 21.941406 12.433594 21.074219 13.550781 L 17.1875 13.550781 L 15.898438 5.382812 C 15.863281 5.167969 15.679688 5.007812 15.464844 5.003906 C 15.230469 4.988281 15.058594 5.148438 15.011719 5.359375 L 13.449219 12.796875 L 12.691406 11.519531 C 12.605469 11.382812 12.472656 11.308594 12.296875 11.300781 C 12.136719 11.304688 11.988281 11.390625 11.910156 11.53125 L 10.121094 14.753906 L 7.773438 8.886719 C 7.703125 8.71875 7.542969 8.605469 7.363281 8.601562 C 7.191406 8.589844 7.019531 8.703125 6.945312 8.867188 L 4.816406 13.550781 L 2.925781 13.550781 C 2.058594 12.433594 1.4375 11.167969 1.121094 9.816406 C 0.792969 8.425781 0.925781 7.644531 0.925781 7.636719 L 0.933594 7.59375 C 1.234375 4.203125 3.589844 1.746094 6.527344 1.746094 C 8.28125 1.746094 9.878906 2.609375 10.910156 4.117188 C 11.148438 4.460938 11.519531 4.664062 11.929688 4.664062 C 12.332031 4.65625 12.710938 4.472656 12.953125 4.128906 C 14.003906 2.636719 15.695312 1.746094 17.46875 1.746094 C 20.410156 1.746094 22.765625 4.207031 23.070312 7.636719 C 23.074219 7.644531 23.207031 8.429688 22.878906 9.816406 Z M 22.878906 9.816406"/>
</svg>

<svg xmlns="http://www.w3.org/2000/svg" width="32" height="32" viewBox="0 0 24 24">
    <path d="M23.96 7.496C23.61 3.641 20.884.848 17.47.848c-2.067 0-4.032 1.03-5.25 2.761a.332.332 0 0 1-.281.157c-.07.004-.188-.02-.286-.16C10.453 1.851 8.586.847 6.527.847 3.117.848.391 3.64.04 7.496c-.027.168-.14 1.063.203 2.527.5 2.11 1.649 4.024 3.324 5.543l8.364 7.59 8.504-7.59c.43-.39.824-.804 1.183-1.246.004-.004.008-.015.016-.02a10.673 10.673 0 0 0 2.125-4.277c.344-1.464.23-2.359.203-2.527zm-12.026 14.45l-7.762-7.048c-.16-.144-.313-.296-.461-.449h1.394a.452.452 0 0 0 .41-.261l1.813-3.989 2.309 5.77c.062.16.215.27.386.281h.032c.16 0 .312-.086.39-.23l1.871-3.368.95 1.598a.454.454 0 0 0 .46.21.445.445 0 0 0 .368-.35l1.293-6.169.968 6.13a.45.45 0 0 0 .446.378h3.488c-.148.153-.3.305-.46.45zm10.945-12.13a9.703 9.703 0 0 1-1.805 3.735h-3.887l-1.289-8.168a.45.45 0 0 0-.433-.38c-.235-.015-.406.145-.453.356l-1.563 7.438-.758-1.277a.463.463 0 0 0-.394-.22.454.454 0 0 0-.387.231l-1.789 3.223-2.348-5.867a.459.459 0 0 0-.41-.285.445.445 0 0 0-.418.265l-2.129 4.684h-1.89A9.703 9.703 0 0 1 1.12 9.816C.793 8.426.926 7.645.926 7.636l.008-.042c.3-3.39 2.656-5.848 5.593-5.848 1.754 0 3.352.863 4.383 2.371.238.344.61.547 1.02.547a1.265 1.265 0 0 0 1.023-.535c1.05-1.492 2.742-2.383 4.516-2.383 2.941 0 5.297 2.461 5.601 5.89.004.009.137.794-.191 2.18zm0 0"/>
</svg>
